X:1
T:Title
%%score { ( 1 3 4 ) | ( 2 5 ) }
L:1/8
M:4/4
K:G
V:1 bass nm="Grand Piano"
V:3 bass 
V:4 bass 
V:2 bass 
V:5 bass 
V:1
 z4 z[Q:1/4=88] B,C^C | D6[K:treble] z2 | B6[K:bass][K:treble] z2 | [^CB]3 A AEFG | A6[K:bass] z2 | %5
 D6[K:treble] z2 | B6[K:bass][K:treble] z2 | [A,F]3 F AG[A,F][K:bass][G,E] | %8
[M:5/8] [F,D]-[F,D]- [F,D]3 |[M:3/8] D[K:treble]E=F |[M:4/4] F6 z2 | B6 z2 | %12
 B3 [^DA] [EG][FA][GB][G^c] | d6 z2 | B3 d cBAG | G,4 G,2 [Ec]2 | [DB]3 [Ec] BG A>[B,G] | %17
[M:5/8] [B,G]-[B,G]- [B,G]3 |] %18
V:2
 z4 z G,A,_B, | B,4- B,[K:treble]DE^D | D6 D2 | A,,2 z ^C [A,C][G,C][F,C][E,C] | %4
 C2- [E,C-][E,C-] [F,C]G,A,_B, | B,4- B,[K:treble]DE^D | D6 B,2 | z2 z D ^CB, [A,,,A,,]2 | %8
[M:5/8] [D,,D,]- [D,,D,]3 z |[M:3/8] z3 |[M:4/4] z [D,A,][D,A,][D,A,] [D,A,]B,CC | D6 z2 | %12
 [F,A,^D]3 [B,,B,] [E,B,][E,B,][E,B,][A,,A,] | A,2 z2 z4 | %14
 [G,DG]3 [G,B,G] [G,EG][G,DG][G,CD][K:bass][G,B,D] | C,C, .E,2 C,2 [C,G,]2 | %16
 [D,G,]3 [D,G,] [D,G,D][D,G,B,] [D,F,C]>[G,,D,G,] |[M:5/8] [G,,D,G,]-[G,,D,G,]- [G,,D,G,]3 |] %18
V:3
 x8 | z G,,B,,D, z[K:treble] BcG | z[K:bass] G,,B,,D, G,2[K:treble] B2 | x8 | %4
 z2[K:bass] A,A, A,B,C^C | z G,,B,,D, G,[K:treble]BcG | z[K:bass] G,,B,,D, G,2[K:treble] G2 | %7
 x7[K:bass] x |[M:5/8] x5 |[M:3/8] x[K:treble] x2 |[M:4/4] z CCC CGA_B | z G,G,G, G,2 B2 | x8 | %13
 F2 G2 A2 [DAc]2 | x8 | [CE]6 z2 | x8 |[M:5/8] x5 |] %18
V:4
 x8 | z4 G,2[K:treble] z2 | x[K:bass] x5[K:treble] x2 | x8 | x2[K:bass] x6 | x5[K:treble] x3 | %6
 x[K:bass] x5[K:treble] x2 | x7[K:bass] x |[M:5/8] x5 |[M:3/8] x[K:treble] x2 |[M:4/4] x8 | x8 | %12
 x8 | x8 | x8 | x8 | x8 |[M:5/8] x5 |] %18
V:5
 x8 | x5[K:treble] x3 | x8 | z2 E,2 z4 | [D,F,]2 z2 z4 | x5[K:treble] x3 | x8 | A,,6 z2 | %8
[M:5/8] x5 |[M:3/8] x3 |[M:4/4] x8 | z G,,B,,D, z2 [G,D]2 | x8 | D,2- [D,-B,]2 [D,C]2 F,2 | %14
 x7[K:bass] x | x8 | x8 |[M:5/8] x5 |] %18

